
;Exported by FreeCAD
;Post Processor: centroid_post
;CAM file: /Users/ward/code/triscope/triscope.FCStd
;Output Time: 2020-11-29 15:07:10.706721
G90 G80 G40 G49
;T1=Default_Tool
;begin preamble
G53 G00 G17
G20
;begin operation
;Default Tool
M6 T1
M3 S0
;end operation: Default Tool
;begin operation
;Drilling
;Begin Drilling
G0 Z12.0000
G90
G98
G81 X-21.1615 Y72.6529 Z6.0000 F0.0 R10.0000
G81 X-52.3385 Y54.6529 Z6.0000 F0.0 R10.0000
G81 X-52.3385 Y-54.6529 Z6.0000 F0.0 R10.0000
G81 X-21.1615 Y-72.6529 Z6.0000 F0.0 R10.0000
G81 X73.5000 Y-18.0000 Z6.0000 F0.0 R10.0000
G81 X73.5000 Y18.0000 Z6.0000 F0.0 R10.0000
G80
G0 Z12.0000
;end operation: Drilling
;begin operation
;Profile_Edges
;Compensated Tool Path. Diameter: 5.0
G0 Z12.0000
G0 X45.7960 Y41.7935
G0 Z10.0000
G1 X45.7960 Y41.7935 Z6.0000
G2 X61.2575 Y9.5693 Z6.0000 I-45.7970 J-41.7953
G3 X63.7201 Y7.5000 Z6.0000 I2.4626 J0.4307
G1 X80.5000 Y7.5000 Z6.0000
G1 X80.5000 Y-7.5000 Z6.0000
G1 X63.7201 Y-7.5000 Z6.0000
G3 X61.2575 Y-9.5693 Z6.0000 I0.0000 J-2.5000
G2 X-22.3415 Y-57.8352 Z6.0000 I-61.2585 J9.5711
G3 X-25.3649 Y-58.9332 Z6.0000 I-0.8583 J-2.3480
G1 X-33.7548 Y-73.4650 Z6.0000
G1 X-46.7452 Y-65.9650 Z6.0000
G1 X-38.3552 Y-51.4332 Z6.0000
G3 X-38.9160 Y-48.2659 Z6.0000 I-2.1651 J1.2500
G2 X-38.9160 Y48.2659 Z6.0000 I38.9181 J48.2659
G3 X-38.3552 Y51.4332 Z6.0000 I-1.6043 J1.9173
G1 X-46.7452 Y65.9650 Z6.0000
G1 X-33.7548 Y73.4650 Z6.0000
G1 X-25.3649 Y58.9332 Z6.0000
G3 X-22.3415 Y57.8352 Z6.0000 I2.1651 J1.2500
G2 X45.7960 Y41.7935 Z6.0000 I22.3404 J-57.8370
G0 Z12.0000
;end operation: Profile_Edges
;begin operation
;Profile_Edges001
;Compensated Tool Path. Diameter: 5.0
G0 Z12.0000
G0 X70.0034 Y70.0034
G0 Z10.0000
G1 X70.0034 Y70.0034 Z6.0000
G2 X5.6874 Y-98.8362 Z6.0000 I-70.0034 J-70.0034
G2 X-5.6874 Y98.8362 Z6.0000 I-5.6874 J98.8362
G2 X70.0034 Y70.0034 Z6.0000 I5.6874 J-98.8362
G0 Z12.0000
;end operation: Profile_Edges001
;begin postamble
M5 M25
G49 H0
G90 G80 G40 G49
M99
