(Exported by FreeCAD)
(Post Processor: linuxcnc_post)
(Output Time:2020-11-30 17:00:27.906801)
(begin preamble)
G17 G54 G40 G49 G80 G90
G21
(begin operation: T2: 2.3 tool)
(machine: not set, mm/min)
(T2: 2.3 tool)
M6 T2
M3 S0
(finish operation: T2: 2.3 tool)
(begin operation: Profile_Edges)
(machine: not set, mm/min)
(Profile_Edges)
(Uncompensated Tool Path)
G0 Z5.000
G0 X46.576 Y-150.675
G1 X46.576 Y-150.675 Z-2.300
G2 X45.292 Y-154.085 Z-2.300 I-1.414 J-1.414
G2 X43.166 Y-152.220 Z-2.300 I-0.131 J1.996
G2 X45.031 Y-150.093 Z-2.300 I1.996 J0.131
G2 X46.576 Y-150.675 Z-2.300 I0.131 J-1.996
G1 X46.576 Y-150.675 Z-4.600
G2 X45.292 Y-154.085 Z-4.600 I-1.414 J-1.414
G2 X43.166 Y-152.220 Z-4.600 I-0.131 J1.996
G2 X45.031 Y-150.093 Z-4.600 I1.996 J0.131
G2 X46.576 Y-150.675 Z-4.600 I0.131 J-1.996
G1 X46.576 Y-150.675 Z-6.900
G2 X45.292 Y-154.085 Z-6.900 I-1.414 J-1.414
G2 X43.166 Y-152.220 Z-6.900 I-0.131 J1.996
G2 X45.031 Y-150.093 Z-6.900 I1.996 J0.131
G2 X46.576 Y-150.675 Z-6.900 I0.131 J-1.996
G1 X46.576 Y-150.675 Z-7.000
G2 X45.292 Y-154.085 Z-7.000 I-1.414 J-1.414
G2 X43.166 Y-152.220 Z-7.000 I-0.131 J1.996
G2 X45.031 Y-150.093 Z-7.000 I1.996 J0.131
G2 X46.576 Y-150.675 Z-7.000 I0.131 J-1.996
G0 Z5.000
G0 X77.753 Y-168.675
G1 X77.753 Y-168.675 Z-2.300
G2 X78.334 Y-169.958 Z-2.300 I-1.414 J-1.414
G2 X76.469 Y-172.085 Z-2.300 I-1.996 J-0.131
G2 X74.343 Y-170.220 Z-2.300 I-0.131 J1.996
G2 X77.753 Y-168.675 Z-2.300 I1.996 J0.131
G1 X77.753 Y-168.675 Z-4.600
G2 X78.334 Y-169.958 Z-4.600 I-1.414 J-1.414
G2 X76.469 Y-172.085 Z-4.600 I-1.996 J-0.131
G2 X74.343 Y-170.220 Z-4.600 I-0.131 J1.996
G2 X77.753 Y-168.675 Z-4.600 I1.996 J0.131
G1 X77.753 Y-168.675 Z-6.900
G2 X78.334 Y-169.958 Z-6.900 I-1.414 J-1.414
G2 X76.469 Y-172.085 Z-6.900 I-1.996 J-0.131
G2 X74.343 Y-170.220 Z-6.900 I-0.131 J1.996
G2 X77.753 Y-168.675 Z-6.900 I1.996 J0.131
G1 X77.753 Y-168.675 Z-7.000
G2 X78.334 Y-169.958 Z-7.000 I-1.414 J-1.414
G2 X76.469 Y-172.085 Z-7.000 I-1.996 J-0.131
G2 X74.343 Y-170.220 Z-7.000 I-0.131 J1.996
G2 X77.753 Y-168.675 Z-7.000 I1.996 J0.131
G0 Z5.000
G0 X172.414 Y-114.022
G1 X172.414 Y-114.022 Z-2.300
G2 X171.000 Y-117.436 Z-2.300 I-1.414 J-1.414
G2 X171.000 Y-113.436 Z-2.300 I0.000 J2.000
G2 X172.414 Y-114.022 Z-2.300 I0.000 J-2.000
G1 X172.414 Y-114.022 Z-4.600
G2 X171.000 Y-117.436 Z-4.600 I-1.414 J-1.414
G2 X171.000 Y-113.436 Z-4.600 I0.000 J2.000
G2 X172.414 Y-114.022 Z-4.600 I0.000 J-2.000
G1 X172.414 Y-114.022 Z-6.900
G2 X171.000 Y-117.436 Z-6.900 I-1.414 J-1.414
G2 X171.000 Y-113.436 Z-6.900 I0.000 J2.000
G2 X172.414 Y-114.022 Z-6.900 I0.000 J-2.000
G1 X172.414 Y-114.022 Z-7.000
G2 X171.000 Y-117.436 Z-7.000 I-1.414 J-1.414
G2 X171.000 Y-113.436 Z-7.000 I0.000 J2.000
G2 X172.414 Y-114.022 Z-7.000 I0.000 J-2.000
G0 Z5.000
G0 X172.414 Y-78.022
G1 X172.414 Y-78.022 Z-2.300
G2 X171.000 Y-81.436 Z-2.300 I-1.414 J-1.414
G2 X171.000 Y-77.436 Z-2.300 I0.000 J2.000
G2 X172.414 Y-78.022 Z-2.300 I0.000 J-2.000
G1 X172.414 Y-78.022 Z-4.600
G2 X171.000 Y-81.436 Z-4.600 I-1.414 J-1.414
G2 X171.000 Y-77.436 Z-4.600 I0.000 J2.000
G2 X172.414 Y-78.022 Z-4.600 I0.000 J-2.000
G1 X172.414 Y-78.022 Z-6.900
G2 X171.000 Y-81.436 Z-6.900 I-1.414 J-1.414
G2 X171.000 Y-77.436 Z-6.900 I0.000 J2.000
G2 X172.414 Y-78.022 Z-6.900 I0.000 J-2.000
G1 X172.414 Y-78.022 Z-7.000
G2 X171.000 Y-81.436 Z-7.000 I-1.414 J-1.414
G2 X171.000 Y-77.436 Z-7.000 I0.000 J2.000
G2 X172.414 Y-78.022 Z-7.000 I0.000 J-2.000
G0 Z5.000
G0 X77.753 Y-23.369
G1 X77.753 Y-23.369 Z-2.300
G2 X76.208 Y-26.779 Z-2.300 I-1.414 J-1.414
G2 X74.343 Y-24.652 Z-2.300 I0.131 J1.996
G2 X76.469 Y-22.787 Z-2.300 I1.996 J-0.131
G2 X77.753 Y-23.369 Z-2.300 I-0.131 J-1.996
G1 X77.753 Y-23.369 Z-4.600
G2 X76.208 Y-26.779 Z-4.600 I-1.414 J-1.414
G2 X74.343 Y-24.652 Z-4.600 I0.131 J1.996
G2 X76.469 Y-22.787 Z-4.600 I1.996 J-0.131
G2 X77.753 Y-23.369 Z-4.600 I-0.131 J-1.996
G1 X77.753 Y-23.369 Z-6.900
G2 X76.208 Y-26.779 Z-6.900 I-1.414 J-1.414
G2 X74.343 Y-24.652 Z-6.900 I0.131 J1.996
G2 X76.469 Y-22.787 Z-6.900 I1.996 J-0.131
G2 X77.753 Y-23.369 Z-6.900 I-0.131 J-1.996
G1 X77.753 Y-23.369 Z-7.000
G2 X76.208 Y-26.779 Z-7.000 I-1.414 J-1.414
G2 X74.343 Y-24.652 Z-7.000 I0.131 J1.996
G2 X76.469 Y-22.787 Z-7.000 I1.996 J-0.131
G2 X77.753 Y-23.369 Z-7.000 I-0.131 J-1.996
G0 Z5.000
G0 X46.576 Y-41.369
G1 X46.576 Y-41.369 Z-2.300
G2 X45.031 Y-44.779 Z-2.300 I-1.414 J-1.414
G2 X43.166 Y-42.652 Z-2.300 I0.131 J1.996
G2 X45.292 Y-40.787 Z-2.300 I1.996 J-0.131
G2 X46.576 Y-41.369 Z-2.300 I-0.131 J-1.996
G1 X46.576 Y-41.369 Z-4.600
G2 X45.031 Y-44.779 Z-4.600 I-1.414 J-1.414
G2 X43.166 Y-42.652 Z-4.600 I0.131 J1.996
G2 X45.292 Y-40.787 Z-4.600 I1.996 J-0.131
G2 X46.576 Y-41.369 Z-4.600 I-0.131 J-1.996
G1 X46.576 Y-41.369 Z-6.900
G2 X45.031 Y-44.779 Z-6.900 I-1.414 J-1.414
G2 X43.166 Y-42.652 Z-6.900 I0.131 J1.996
G2 X45.292 Y-40.787 Z-6.900 I1.996 J-0.131
G2 X46.576 Y-41.369 Z-6.900 I-0.131 J-1.996
G1 X46.576 Y-41.369 Z-7.000
G2 X45.031 Y-44.779 Z-7.000 I-1.414 J-1.414
G2 X43.166 Y-42.652 Z-7.000 I0.131 J1.996
G2 X45.292 Y-40.787 Z-7.000 I1.996 J-0.131
G2 X46.576 Y-41.369 Z-7.000 I-0.131 J-1.996
G0 Z5.000
(finish operation: Profile_Edges)
(begin operation: Profile_Edges001)
(machine: not set, mm/min)
(Profile_Edges001)
(Compensated Tool Path. Diameter: 2.3)
G0 Z5.000
G0 X144.119 Y-54.542
G1 X144.119 Y-54.542 Z-2.300
G2 X160.087 Y-87.634 Z-2.300 I-46.620 J-42.894
G3 X161.220 Y-88.586 Z-2.300 I1.133 J0.198
G1 X179.350 Y-88.586 Z-2.300
G1 X179.350 Y-106.286 Z-2.300
G1 X161.220 Y-106.286 Z-2.300
G3 X160.087 Y-107.238 Z-2.300 I0.000 J-1.150
G2 X74.695 Y-156.539 Z-2.300 I-62.588 J9.803
G3 X73.304 Y-157.044 Z-2.300 I-0.395 J-1.080
G1 X64.239 Y-172.745 Z-2.300
G1 X48.911 Y-163.895 Z-2.300
G1 X57.976 Y-148.194 Z-2.300
G3 X57.718 Y-146.737 Z-2.300 I-0.996 J0.575
G2 X57.718 Y-48.135 Z-2.300 I39.783 J49.301
G3 X57.976 Y-46.678 Z-2.300 I-0.738 J0.882
G1 X48.911 Y-30.977 Z-2.300
G1 X64.239 Y-22.127 Z-2.300
G1 X73.304 Y-37.828 Z-2.300
G3 X74.695 Y-38.333 Z-2.300 I0.996 J0.575
G2 X144.119 Y-54.542 Z-2.300 I22.804 J-59.104
G1 X144.119 Y-54.542 Z-4.600
G2 X160.087 Y-87.634 Z-4.600 I-46.620 J-42.894
G3 X161.220 Y-88.586 Z-4.600 I1.133 J0.198
G1 X179.350 Y-88.586 Z-4.600
G1 X179.350 Y-106.286 Z-4.600
G1 X161.220 Y-106.286 Z-4.600
G3 X160.087 Y-107.238 Z-4.600 I0.000 J-1.150
G2 X74.695 Y-156.539 Z-4.600 I-62.588 J9.803
G3 X73.304 Y-157.044 Z-4.600 I-0.395 J-1.080
G1 X64.239 Y-172.745 Z-4.600
G1 X48.911 Y-163.895 Z-4.600
G1 X57.976 Y-148.194 Z-4.600
G3 X57.718 Y-146.737 Z-4.600 I-0.996 J0.575
G2 X57.718 Y-48.135 Z-4.600 I39.783 J49.301
G3 X57.976 Y-46.678 Z-4.600 I-0.738 J0.882
G1 X48.911 Y-30.977 Z-4.600
G1 X64.239 Y-22.127 Z-4.600
G1 X73.304 Y-37.828 Z-4.600
G3 X74.695 Y-38.333 Z-4.600 I0.996 J0.575
G2 X144.119 Y-54.542 Z-4.600 I22.804 J-59.104
G1 X144.119 Y-54.542 Z-6.900
G2 X160.087 Y-87.634 Z-6.900 I-46.620 J-42.894
G3 X161.220 Y-88.586 Z-6.900 I1.133 J0.198
G1 X179.350 Y-88.586 Z-6.900
G1 X179.350 Y-106.286 Z-6.900
G1 X161.220 Y-106.286 Z-6.900
G3 X160.087 Y-107.238 Z-6.900 I0.000 J-1.150
G2 X74.695 Y-156.539 Z-6.900 I-62.588 J9.803
G3 X73.304 Y-157.044 Z-6.900 I-0.395 J-1.080
G1 X64.239 Y-172.745 Z-6.900
G1 X48.911 Y-163.895 Z-6.900
G1 X57.976 Y-148.194 Z-6.900
G3 X57.718 Y-146.737 Z-6.900 I-0.996 J0.575
G2 X57.718 Y-48.135 Z-6.900 I39.783 J49.301
G3 X57.976 Y-46.678 Z-6.900 I-0.738 J0.882
G1 X48.911 Y-30.977 Z-6.900
G1 X64.239 Y-22.127 Z-6.900
G1 X73.304 Y-37.828 Z-6.900
G3 X74.695 Y-38.333 Z-6.900 I0.996 J0.575
G2 X144.119 Y-54.542 Z-6.900 I22.804 J-59.104
G1 X144.119 Y-54.542 Z-7.000
G2 X160.087 Y-87.634 Z-7.000 I-46.620 J-42.894
G3 X161.220 Y-88.586 Z-7.000 I1.133 J0.198
G1 X179.350 Y-88.586 Z-7.000
G1 X179.350 Y-106.286 Z-7.000
G1 X161.220 Y-106.286 Z-7.000
G3 X160.087 Y-107.238 Z-7.000 I0.000 J-1.150
G2 X74.695 Y-156.539 Z-7.000 I-62.588 J9.803
G3 X73.304 Y-157.044 Z-7.000 I-0.395 J-1.080
G1 X64.239 Y-172.745 Z-7.000
G1 X48.911 Y-163.895 Z-7.000
G1 X57.976 Y-148.194 Z-7.000
G3 X57.718 Y-146.737 Z-7.000 I-0.996 J0.575
G2 X57.718 Y-48.135 Z-7.000 I39.783 J49.301
G3 X57.976 Y-46.678 Z-7.000 I-0.738 J0.882
G1 X48.911 Y-30.977 Z-7.000
G1 X64.239 Y-22.127 Z-7.000
G1 X73.304 Y-37.828 Z-7.000
G3 X74.695 Y-38.333 Z-7.000 I0.996 J0.575
G2 X144.119 Y-54.542 Z-7.000 I22.804 J-59.104
G0 Z5.000
(finish operation: Profile_Edges001)
(begin operation: Profile_Edges002)
(machine: not set, mm/min)
(Profile_Edges002)
(Compensated Tool Path. Diameter: 2.3)
G0 Z5.000
G0 X166.549 Y-28.387
G1 X166.549 Y-28.387 Z-2.300
G2 X103.091 Y-194.926 Z-2.300 I-69.049 J-69.049
G2 X91.909 Y0.054 Z-2.300 I-5.591 J97.490
G2 X166.549 Y-28.387 Z-2.300 I5.591 J-97.490
G1 X166.549 Y-28.387 Z-4.600
G2 X103.091 Y-194.926 Z-4.600 I-69.049 J-69.049
G2 X91.909 Y0.054 Z-4.600 I-5.591 J97.490
G2 X166.549 Y-28.387 Z-4.600 I5.591 J-97.490
G1 X166.549 Y-28.387 Z-6.900
G2 X103.091 Y-194.926 Z-6.900 I-69.049 J-69.049
G2 X91.909 Y0.054 Z-6.900 I-5.591 J97.490
G2 X166.549 Y-28.387 Z-6.900 I5.591 J-97.490
G1 X166.549 Y-28.387 Z-7.000
G2 X103.091 Y-194.926 Z-7.000 I-69.049 J-69.049
G2 X91.909 Y0.054 Z-7.000 I-5.591 J97.490
G2 X166.549 Y-28.387 Z-7.000 I5.591 J-97.490
G0 Z5.000
(finish operation: Profile_Edges002)
(begin postamble)
M05
G17 G54 G90 G80 G40
M2
